X:3
T:Pigeon in the Rafters
R:reel
C:Paul S. Cranford
O:Cape Breton Island
S:http://www.cranfordpub.com
D:currently unrecorded
B:currently unpublished in book form
Z:psc
H:                                                        copyrights Cranford Publications, SOCAN
L:1/8
Q:333
M:C|
K:Amix
A2 cA dfed|cA A/A/A A=cBA|BG G/G/G GA (B/c/d)|ecac BedB|
A2 cA dfed|cA A/A/A a2 ef|ge e/e/e {e}a2 af|gedB A2 Aa||
||e2 dB cAAc|dGed B2 Aa|e2 dB cAaf|gefd e2 Aa|
e2 dB cAAc|dGed B2 AB|AGeG dGBa|gedB A2 Aa||
||Aace dfed|cA A/A/A a2 A=c|BG G/G/G GA (B/c/d)|ecac BedB|
Aace dfed|cAec a2 ef|ge e/e/e {e}a2 af|gedB A2 Aa||
||eAaA cAec|dG G/G/G B2 Aa|eAaA cAaf|gefd e2 Aa|
eAaA cAec|dG G/G/G B2 AB|AGeG dGBa|gedB A2 AB|]
